X:1
T:Gavotte (ton simpl)
C:Traditionnel, jou par Fulup ar Balp.  Fichier ABC par Bernard Loffet
L:1/8
Q:420
M:9/8
K:G
 z8d | [e2G,2G,2]d [B2G,2]d [e2D,2]d | [B3G,3G,3] [e2A,2]d [c2D,2]A | [c3D,3D,3] [B2G,2]d | \
 [e2G,2G,2]d [B2G,2]d [e2D,2]d | [B3G,3G,3] [e2A,2]d [c2D,2]A | [c3D,3D,3] [B2G,2]d | \
 [e2G,2G,2]d [B2G,2]d [e2D,2]d | [e3C,3C,3] [d2G,2]c [B2G,2]G | [A3D,3D,3] [G2G,2]d | \
 [e2G,2G,2]d [B2G,2]d [e2D,2]d | [e3C,3C,3] [d2G,2]c [B2G,2]G | [A3D,3D,3] [G3G,3] | \
K:C
Z:Created with TablEdit http://www.tabledit.com/ by Bernard Loffet
